X:7549
T:In Search Of Love
R:jig
M:6/8
L:1/8
K:C
e | fed edc | {d}cAB c3 | dcA GFC | DFc  deg |
f2d {f}edc | {d}cAB cBc  | dcA GFD | =FGA d3 |
fed edc | {d} cAB ~c3 | dcA GFC | DFc deg |
f3 edc | {d}cAB c3 | dcA GFD | =FGA d=cd |
dBA F2 D | [E2G,2] [GG,] [F2G,2] A | dBA G=FG |  A d{e}d def |
dBA [F2G,2] [DG,] | [E2G,2] [DG,] [D2G,2] G | DFA GFG | =FGA d=cd |
dBA FDF | EGE DEG | DFA G=FG | A d{e}d def |
dBA F2 D | E{F}EG ~c3) | dBA GFC | =FGA d3 |
